X: 6
T: The Galway Rambler
R: reel
M: 4/4
L: 1/8
K: Gmaj
G2 dG eGdB|GBdB AGEF|GFGA BABd|[1 gedB AGEF:|[2 gedB ABcd||
g3 b a3 b|gabg agef|g2 gb a2 ab|gedB ABcd|
g3 b a3 b|gabg aaga|bgag egfa|gedB AGEF|]


Tune 634	Setting 25698

